X:1
T:Telangana, 87.87 D
T:Telangana, 87.87 D
T:William A. Galpin, 1878
T:Public Domain Courtesy of the Cyber Hymnal™
C:William A. Galpin, 1878
Z:Public Domain
Z:Courtesy of the Cyber Hymnal™
%%score ( 1 2 ) ( 3 4 )
L:1/8
Q:1/4=110
M:9/8
K:Ab
V:1 treble 
V:2 treble 
V:3 bass 
V:4 bass 
V:1
 (EA)[DB] | [Ec]3 [CA]3 (BA)[EB] | [Ec]3 [Ec]3 (EA)[Ec] | [Ee]3 [Ec]3 [Ed]2 [Ec] | [EB]6 (EA)[DB] | %5
 [Ec]3 [Ec]3 (cB)[=Gc] | [Fd]3 [Fd]3 [Ec]2 [Ec] | [EB]3- [EB]2 [EB] [Ec]2 [EB] | %8
 (B2 c !fermata!d3) (EA)[Ec] | [Ee]3 [Ec]3 ([DB][Ec])[DB] | [CA]3 [CE]3 (CE)[CA] | %11
 [Ec]3 [CA]3 [EB]2 [Ec] | [EB]6 (EA)[Ec] | [Ee]3 [Ec]3 [Ed]2 [Ec] | [FB]3 [DF]3 [DF]2 [DF] | %15
 [CE]3 ([=B,=D]2 [CE]) [_DF]2 [DG] | [CA]3- [CA]2 z |] %17
V:2
 C2 x | x6 E2 x | x6 C2 x | x9 | x6 C2 x | x6 _G2 x | x9 | x9 | E6 E2 x | x9 | x6 C2 x | x9 | %12
 x6 C2 x | x9 | x9 | x9 | x6 |] %17
V:3
 [A,,A,]2 [A,,A,] | [A,,A,]3 [A,,A,]3 (G,F,)[E,G,] | A,3 A,3 [A,,A,]2 [A,,A,] | %3
 [A,C]3 A,3 [G,B,]2 A, | [E,G,]6 [A,,A,]2 [A,,A,] | [A,,A,]3 [A,,A,]3 [A,,A,]2 [A,,A,] | %6
 [D,A,]3 [D,A,]3 [A,,A,]2 [A,,A,] | [E,G,]3- [E,G,]2 [E,G,] [E,A,]2 [E,G,] | %8
 (G,2 A, !fermata!B,3) [A,,C]2 [A,,C] | [A,,C]3 [A,,A,]3 [E,G,]2 [E,G,] | %10
 [A,,A,]3 [A,,A,]3 [A,,A,]2 [A,,A,] | [A,,A,]3 [A,,A,]3 [E,G,]2 [E,A,] | [E,G,]6 A,2 A, | %13
 [A,C]3 [A,E]3 [G,E]2 [A,E] | [D,D]3 [D,A,]3 [D,A,]2 [D,A,] | [E,A,]3 [E,A,]3 [E,G,]2 [E,B,] | %16
 [A,,A,]3- [A,,A,]2 z |] %17
V:4
 x3 | x6 E,2 x | A,3 A,3 x3 | x3 A,3 A, x2 | x9 | x9 | x9 | x9 | E,6 x3 | x9 | x9 | x9 | %12
 x6 A,2 A, | x9 | x9 | x9 | x6 |] %17

